app/images/icon/calendar.svg

<svg width="33" height="33" viewBox="0 0 33 33" fill="none" xmlns="http://www.w3.org/2000/svg">
<path d="M29.8934 15.3547V3.03793C29.8934 2.504 29.4605 2.07114 28.9266 2.07114H24.1978V0.966797C24.1978 0.432867 23.765 0 23.231 0C22.6971 0 22.2642 0.432867 22.2642 0.966797V2.07114H15.9135V0.966797C15.9135 0.432867 15.4806 0 14.9467 0C14.4127 0 13.9799 0.432867 13.9799 0.966797V2.07114H7.62912V0.966797C7.62912 0.432867 7.19626 0 6.66233 0C6.1284 0 5.69553 0.432867 5.69553 0.966797V2.07114H0.966797C0.432867 2.07114 0 2.504 0 3.03793V28.9266C0 29.4606 0.432867 29.8934 0.966797 29.8934H15.3547C17.224 31.8087 19.8319 33 22.7132 33C28.3853 33 33 28.3854 33 22.7133C33 19.8319 31.8087 17.224 29.8934 15.3547ZM1.93359 4.00473H27.9598V8.28442H1.93359V4.00473ZM1.93359 27.9598V10.218H27.9598V13.8685C26.4226 12.9533 24.6284 12.4266 22.7133 12.4266C17.0412 12.4266 12.4266 17.0411 12.4266 22.7133C12.4266 24.6284 12.9533 26.4227 13.8685 27.9598H1.93359ZM22.7132 31.0664C18.1073 31.0664 14.3601 27.3192 14.3601 22.7133C14.3601 18.1073 18.1073 14.3602 22.7132 14.3602C27.3192 14.3602 31.0664 18.1074 31.0664 22.7133C31.0664 27.3192 27.3192 31.0664 22.7132 31.0664Z" fill="#0037A1"/>
<path d="M25.8199 21.7465H23.6801V19.6066C23.6801 19.0727 23.2472 18.6398 22.7133 18.6398C22.1793 18.6398 21.7465 19.0727 21.7465 19.6066V22.7133C21.7465 23.2472 22.1793 23.6801 22.7133 23.6801H25.8199C26.3538 23.6801 26.7867 23.2472 26.7867 22.7133C26.7867 22.1793 26.3538 21.7465 25.8199 21.7465Z" fill="#0037A1"/>
</svg>

<svg width="33" height="33" fill="none" xmlns="http://www.w3.org/2000/svg">
    <path d="M29.893 15.355V3.038a.967.967 0 0 0-.966-.967h-4.73V.967a.967.967 0 1 0-1.933 0V2.07h-6.35V.967a.967.967 0 0 0-1.934 0V2.07H7.63V.967a.967.967 0 0 0-1.934 0V2.07H.966A.967.967 0 0 0 0 3.038v25.889c0 .534.433.966.967.966h14.388A10.256 10.256 0 0 0 22.713 33C28.385 33 33 28.385 33 22.713c0-2.881-1.191-5.489-3.107-7.358ZM1.933 4.005H27.96v4.28H1.934v-4.28Zm0 23.955V10.218H27.96v3.65a10.224 10.224 0 0 0-5.247-1.441c-5.672 0-10.286 4.614-10.286 10.286 0 1.915.526 3.71 1.441 5.247H1.934Zm20.78 3.106c-4.606 0-8.353-3.747-8.353-8.353s3.747-8.353 8.353-8.353 8.353 3.747 8.353 8.353-3.747 8.353-8.353 8.353Z" fill="#0037A1"/>
    <path d="M25.82 21.747h-2.14v-2.14a.967.967 0 0 0-1.933 0v3.106c0 .534.432.967.966.967h3.107a.967.967 0 0 0 0-1.933Z" fill="#0037A1"/>
</svg>
